X:1     %Music
T:Eriskay Love Lilt
B:Singing Together, Spring 1973, BBC Publications
F:http://www.folkinfo.org/songs
M:3/4     %Meter
L:1/8     %
K:G
GB |(d3e) dB |G4 GB |(d3e) dB | A4
w:Vair me o_ ro van o, Vair me o_ ro van ee,
DE |F3 G A2 |d4 EE |D3 E G2 | G4
w:Vair me o ru o Ho, Sad am I with-out thee,
GB |d3 e dB |G4 GB |d3 e dB | A4
w:When I'm lone-ly dear white heart, Black the night or wild the sea,
DE |F3 G A2 |d4 EE |D3 E G2 | G4 |]
w:By love's light my foot finds The old path-way to thee.
W:(Chorus)
W:Vair me o ro van o,
W:Vair me o ro van ee,
W:Vair me o ru o Ho,
W:Sad am I without thee,
W:
W:When I'm lonely dear white heart,
W:Black the night or wild the sea,
W:By love's light my foot finds
W:The old pathway to thee.
W:
W:Thou'rt the music of my heart,
W:Harp of joy, oh crootch mo cree,
W:Moon of guidance by night
W:Strength and light thou'rt to me.
